src/qt/pivx/res/img/img-empty-privacy-dark.svg

<?xml version="1.0" encoding="UTF-8" standalone="no"?>
<svg
   xmlns:dc="http://purl.org/dc/elements/1.1/"
   xmlns:cc="http://creativecommons.org/ns#"
   xmlns:rdf="http://www.w3.org/1999/02/22-rdf-syntax-ns#"
   xmlns:svg="http://www.w3.org/2000/svg"
   xmlns="http://www.w3.org/2000/svg"
   xmlns:sodipodi="http://sodipodi.sourceforge.net/DTD/sodipodi-0.dtd"
   xmlns:inkscape="http://www.inkscape.org/namespaces/inkscape"
   id="ic_empty_Dark_zpiv"
   width="100"
   height="100"
   viewBox="0 0 100 100"
   version="1.1"
   sodipodi:docname="img-empty-privacy-dark.svg"
   inkscape:version="0.92.4 (5da689c313, 2019-01-14)">
  <metadata
     id="metadata23">
    <rdf:RDF>
      <cc:Work
         rdf:about="">
        <dc:format>image/svg+xml</dc:format>
        <dc:type
           rdf:resource="http://purl.org/dc/dcmitype/StillImage" />
      </cc:Work>
    </rdf:RDF>
  </metadata>
  <sodipodi:namedview
     pagecolor="#ffffff"
     bordercolor="#666666"
     borderopacity="1"
     objecttolerance="10"
     gridtolerance="10"
     guidetolerance="10"
     inkscape:pageopacity="0"
     inkscape:pageshadow="2"
     inkscape:window-width="640"
     inkscape:window-height="480"
     id="namedview21"
     showgrid="false"
     inkscape:zoom="8.8707665"
     inkscape:cx="58.472673"
     inkscape:cy="48.851695"
     inkscape:current-layer="ic_empty_Dark_zpiv" />
  <defs
     id="defs4">
    <style
       type="text/css"
       id="style2">
            .cls-1{fill:#413d4a}.cls-2{fill:#a09ea5}.cls-3{fill:none}
        </style>
    <style
       id="style2-3">.cls-1{fill:#66f;}</style>
  </defs>
  <g
     id="Group_9081"
     data-name="Group 9081">
    <path
       id="Path_19026"
       d="M50 26a24 24 0 1 0 24 24 24 24 0 0 0-24-24zm0 42a18 18 0 1 1 18-18 18 18 0 0 1-18 18z"
       class="cls-1"
       data-name="Path 19026"
       style="fill:#ed1c24;fill-opacity:1" />
    <g
       id="Group_9080"
       data-name="Group 9080">
      <g
         id="Group_9078"
         data-name="Group 9078">
        <path
           id="Path_19027"
           d="M50 31a19 19 0 1 0 19 19 19.021 19.021 0 0 0-19-19zm0 36a17 17 0 1 1 17-17 17.019 17.019 0 0 1-17 17z"
           class="cls-2"
           data-name="Path 19027" />
        <path
           id="Rectangle_4744"
           d="M0 0h2v4H0z"
           class="cls-2"
           data-name="Rectangle 4744"
           transform="translate(83 56)" />
        <path
           id="Rectangle_4745"
           d="M0 0h2v8H0z"
           class="cls-2"
           data-name="Rectangle 4745"
           transform="translate(83 44)" />
        <path
           id="Rectangle_4746"
           d="M0 0h2v8H0z"
           class="cls-2"
           data-name="Rectangle 4746"
           transform="translate(15 48)" />
        <path
           id="Rectangle_4747"
           d="M0 0h2v4H0z"
           class="cls-2"
           data-name="Rectangle 4747"
           transform="translate(15 40)" />
        <path
           id="Path_19028"
           d="M95.162 71H85v-7h-2v9h7.838L76 90.456 61.162 73H68v-2h-4.461a24.989 24.989 0 0 0-22.4-44.374L24 6.456 4.838 29H15v7h2v-9H9.162L24 9.544 38.838 27H32v2h4.461a24.989 24.989 0 0 0 22.4 44.374L76 93.544zM27 50a23 23 0 1 1 23 23 23.026 23.026 0 0 1-23-23z"
           class="cls-2"
           data-name="Path 19028" />
      </g>
    </g>
  </g>
  <text
     xml:space="preserve"
     style="font-style:normal;font-variant:normal;font-weight:bold;font-stretch:normal;font-size:12px;line-height:1.25;font-family:sans-serif;-inkscape-font-specification:'sans-serif Bold';text-align:center;text-anchor:middle;opacity:1;fill:#ed1c24;fill-opacity:1;stroke:#ed1c24;stroke-width:0;stroke-miterlimit:4;stroke-dasharray:none;stroke-opacity:1"
     x="50.164776"
     y="54.231697"
     id="text839"><tspan
       sodipodi:role="line"
       id="tspan837"
       x="51.359776"
       y="54.231697"
       style="letter-spacing:2.38999963px">SAPP</tspan></text>
</svg>

<?xml version="1.0" encoding="UTF-8" standalone="no"?>
<svg
   xmlns:dc="http://purl.org/dc/elements/1.1/"
   xmlns:cc="http://creativecommons.org/ns#"
   xmlns:rdf="http://www.w3.org/1999/02/22-rdf-syntax-ns#"
   xmlns:svg="http://www.w3.org/2000/svg"
   xmlns="http://www.w3.org/2000/svg"
   version="1.1"
   viewBox="0 0 100 100"
   height="100"
   width="100"
   id="ic_empty_Dark_zpiv">
  <metadata
     id="metadata23">
    <rdf:RDF>
      <cc:Work
         rdf:about="">
        <dc:format>image/svg+xml</dc:format>
        <dc:type
           rdf:resource="http://purl.org/dc/dcmitype/StillImage" />
        <dc:title></dc:title>
      </cc:Work>
    </rdf:RDF>
  </metadata>
  <defs
     id="defs4">
    <style
       id="style2"
       type="text/css">
            .cls-1{fill:#413d4a}.cls-2{fill:#a09ea5}.cls-3{fill:none}
        </style>
  </defs>
  <path
     id="Path_19026"
     d="M 50,26 A 24,24 0 1 0 74,50 24,24 0 0 0 50,26 Z m 0,42 A 18,18 0 1 1 68,50 18,18 0 0 1 50,68 Z"
     class="cls-1"
     data-name="Path 19026"
     style="fill:#413d4a" />
  <g
     data-name="Group 9078"
     id="Group_9078">
    <path
       style="fill:#a09ea5"
       data-name="Path 19027"
       class="cls-2"
       d="M 50,31 A 19,19 0 1 0 69,50 19.021,19.021 0 0 0 50,31 Z m 0,36 A 17,17 0 1 1 67,50 17.019,17.019 0 0 1 50,67 Z"
       id="Path_19027" />
    <path
       style="fill:#a09ea5"
       transform="translate(83,56)"
       data-name="Rectangle 4744"
       class="cls-2"
       d="M 0,0 H 2 V 4 H 0 Z"
       id="Rectangle_4744" />
    <path
       style="fill:#a09ea5"
       transform="translate(83,44)"
       data-name="Rectangle 4745"
       class="cls-2"
       d="M 0,0 H 2 V 8 H 0 Z"
       id="Rectangle_4745" />
    <path
       style="fill:#a09ea5"
       transform="translate(15,48)"
       data-name="Rectangle 4746"
       class="cls-2"
       d="M 0,0 H 2 V 8 H 0 Z"
       id="Rectangle_4746" />
    <path
       style="fill:#a09ea5"
       transform="translate(15,40)"
       data-name="Rectangle 4747"
       class="cls-2"
       d="M 0,0 H 2 V 4 H 0 Z"
       id="Rectangle_4747" />
    <path
       style="fill:#a09ea5"
       data-name="Path 19028"
       class="cls-2"
       d="M 95.162,71 H 85 v -7 h -2 v 9 h 7.838 L 76,90.456 61.162,73 H 68 V 71 H 63.539 A 24.989,24.989 0 0 0 41.139,26.626 L 24,6.456 4.838,29 H 15 v 7 h 2 V 27 H 9.162 L 24,9.544 38.838,27 H 32 v 2 h 4.461 a 24.989,24.989 0 0 0 22.4,44.374 L 76,93.544 Z M 27,50 A 23,23 0 1 1 50,73 23.026,23.026 0 0 1 27,50 Z"
       id="Path_19028" />
  </g>
  <path
     data-name="Rectangle 4748"
     class="cls-3"
     d="M0 0h100v100H0z"
     id="Rectangle_4748" />
</svg>
